X: 31433
T: Paddy Sean Nancy's
R: reel
M: 4/4
K: Gmajor
|:D3A B2 Ac|~BG3 DEGE|D2Ac BABc|dBAG EGGE:|
|:~Bd3 edgd|~Bd2B AGEG|~Bd3 efge|1 dBcA BGGA:|2 dBcA BGGE||

